packages/starksheet-webapp/src/components/Footer/mintsquare.svg

<svg width="49" height="54" viewBox="0 0 49 54" fill="none" xmlns="http://www.w3.org/2000/svg">
    <path d="M21.7295 23.6396L24.7846 20.6143L27.8397 23.6396L24.7846 26.665L21.7295 23.6396Z" fill="black"></path>
    <path fill-rule="evenodd" clip-rule="evenodd" d="M7.74121 23.6396L24.7869 6.76025L41.8325 23.6396L24.7869 40.519L7.74121 23.6396ZM16.5972 23.6396L24.7869 31.7495L32.9766 23.6396L24.7869 15.5298L16.5972 23.6396Z" fill="black"></path>
    <path fill-rule="evenodd" clip-rule="evenodd" d="M0.884766 23.6675L24.7854 -7.42609e-05L48.6861 23.6675L24.7854 47.335L0.884766 23.6675ZM2.65596 23.6675L24.7854 45.5811L46.9149 23.6675L24.7854 1.75384L2.65596 23.6675Z" fill="black"></path>
    <path fill-rule="evenodd" clip-rule="evenodd" d="M5.03702 26.0249L5.03699 26.0249L0.786133 30.2343L5.03699 34.4437L20.5353 49.7908L24.7861 54.0002L29.037 49.7908L44.5353 34.4437L48.7861 30.2343L44.5353 26.0249L40.2844 30.2343L36.0336 34.4437L29.037 41.3721L24.7862 45.5814L24.7861 45.5814L20.5353 41.3721L13.5387 34.4437L9.28784 30.2343L9.28787 30.2343L5.03702 26.0249Z" fill="black"></path>
</svg>

<svg xmlns="http://www.w3.org/2000/svg" width="49" height="54" fill="none" viewBox="0 0 49 54"><path fill="#000" d="m21.73 23.64 3.055-3.026 3.055 3.026-3.055 3.025-3.055-3.025Z"/><path fill="#000" fill-rule="evenodd" d="M7.741 23.64 24.787 6.76l17.046 16.88-17.046 16.879L7.74 23.639Zm8.856 0 8.19 8.11 8.19-8.11-8.19-8.11-8.19 8.11Z" clip-rule="evenodd"/><path fill="#000" fill-rule="evenodd" d="M.885 23.668 24.785 0l23.901 23.668-23.9 23.667L.884 23.667Zm1.771 0 22.13 21.913 22.129-21.914-22.13-21.913L2.656 23.667Z" clip-rule="evenodd"/><path fill="#000" fill-rule="evenodd" d="m5.037 26.025-4.25 4.21 4.25 4.209L20.535 49.79 24.786 54l4.251-4.21 15.498-15.347 4.251-4.21-4.25-4.21-4.252 4.21-4.25 4.21-6.997 6.928-4.25 4.21-4.252-4.21-6.996-6.928-4.251-4.21-4.251-4.21Z" clip-rule="evenodd"/></svg>
